X: 1
T: Door County #1
C: Lary Unger 1988
%D:1988
R: polka, march
S: Fiddle Hell Online 2021-05-31
Z: 2021 John Chambers <jc:trillian.mit.edu>
M: 4/4
L: 1/8
K: Am	% and Amix
|:\
"Am"e2c2 "G"d2B2 | "Am"Bcc2 "G"BAG2 | "Am"e2c2 "G"d2B2 | BAG2 "Em"E4 |\
"Am"e2c2 "G"d2B2 | "Am"Bcc2 "G"BAG2 | "Em"EGG2 ABBB | BAG2 "Am"A4 :|
|:\
"A"e2a2 a2aa | "G"g2a2 bag2 | "A"e2a2 a2aa | "G"ged2 "Em"e4 |\
"A"e2a2 a2aa | "G"g2a2 bag2 | "Am"c'2b2 a2g2 | "Em"e2g2 "(Am)"edc2 :|
